assets/Banjo/Flat/banjo_flat.svg

<svg width="32" height="32" viewBox="0 0 32 32" fill="none" xmlns="http://www.w3.org/2000/svg">
<path d="M11.0199 13.1C11.0199 13.6467 10.5767 14.09 10.0299 14.09C9.48315 14.09 9.03992 13.6467 9.03992 13.1C9.03992 12.5532 9.48315 12.11 10.0299 12.11C10.5767 12.11 11.0199 12.5532 11.0199 13.1Z" fill="#FCD53F"/>
<path d="M6.44997 15.41C6.44997 15.9568 6.00673 16.4 5.45997 16.4C4.91321 16.4 4.46997 15.9568 4.46997 15.41C4.46997 14.8633 4.91321 14.42 5.45997 14.42C6.00673 14.42 6.44997 14.8633 6.44997 15.41Z" fill="#FCD53F"/>
<path d="M16.63 27.58C17.1768 27.58 17.62 27.1367 17.62 26.59C17.62 26.0432 17.1768 25.6 16.63 25.6C16.0833 25.6 15.64 26.0432 15.64 26.59C15.64 27.1367 16.0833 27.58 16.63 27.58Z" fill="#FCD53F"/>
<path d="M19.88 21.96C19.88 22.5067 19.4368 22.95 18.89 22.95C18.3433 22.95 17.9 22.5067 17.9 21.96C17.9 21.4132 18.3433 20.97 18.89 20.97C19.4368 20.97 19.88 21.4132 19.88 21.96Z" fill="#FCD53F"/>
<path d="M2.99 21.12C3.53676 21.12 3.98 20.6768 3.98 20.13C3.98 19.5833 3.53676 19.14 2.99 19.14C2.44324 19.14 2 19.5833 2 20.13C2 20.6768 2.44324 21.12 2.99 21.12Z" fill="#FCD53F"/>
<path d="M12.85 29C12.85 29.5468 12.4068 29.99 11.86 29.99C11.3132 29.99 10.87 29.5468 10.87 29C10.87 28.4532 11.3132 28.01 11.86 28.01C12.4068 28.01 12.85 28.4532 12.85 29Z" fill="#FCD53F"/>
<path d="M25 3.14375C25 3.58558 24.6419 3.94375 24.2 3.94375C23.7582 3.94375 23.4 3.58558 23.4 3.14375C23.4 2.70192 23.7582 2.34375 24.2 2.34375C24.6419 2.34375 25 2.70192 25 3.14375Z" fill="#D3D3D3"/>
<path d="M23.74 4.87373C23.74 5.31556 23.3818 5.67373 22.94 5.67373C22.4982 5.67373 22.14 5.31556 22.14 4.87373C22.14 4.4319 22.4982 4.07373 22.94 4.07373C23.3818 4.07373 23.74 4.4319 23.74 4.87373Z" fill="#D3D3D3"/>
<path d="M28.7275 8.45876C29.1693 8.45876 29.5275 8.10059 29.5275 7.65876C29.5275 7.21694 29.1693 6.85876 28.7275 6.85876C28.2857 6.85876 27.9275 7.21694 27.9275 7.65876C27.9275 8.10059 28.2857 8.45876 28.7275 8.45876Z" fill="#D3D3D3"/>
<path d="M27.7975 8.91877C27.7975 9.3606 27.4393 9.71877 26.9975 9.71877C26.5557 9.71877 26.1975 9.3606 26.1975 8.91877C26.1975 8.47695 26.5557 8.11877 26.9975 8.11877C27.4393 8.11877 27.7975 8.47695 27.7975 8.91877Z" fill="#D3D3D3"/>
<path d="M11 28C14.866 28 18 24.866 18 21C18 17.134 14.866 14 11 14C7.13401 14 4 17.134 4 21C4 24.866 7.13401 28 11 28Z" fill="#F3EEF8"/>
<path d="M15.46 16.54C16.6 17.68 17.3 19.25 17.3 20.98C17.3 24.45 14.49 27.26 11.02 27.26C9.28998 27.26 7.71998 26.56 6.57998 25.42C5.43998 24.28 4.73998 22.71 4.73998 20.98C4.73998 17.51 7.54998 14.7 11.02 14.7C12.76 14.7 14.33 15.4 15.46 16.54ZM16.64 15.37C15.14 13.87 13.15 13.05 11.03 13.05C8.90998 13.05 6.91998 13.88 5.41998 15.37C3.91998 16.87 3.09998 18.86 3.09998 20.98C3.09998 23.1 3.92998 25.09 5.41998 26.59C6.91998 28.09 8.90998 28.91 11.03 28.91C15.41 28.91 18.97 25.35 18.97 20.97C18.96 18.86 18.13 16.87 16.64 15.37Z" fill="#8C5543"/>
<path d="M25.32 8.66996L23.2 6.57996L12.58 16.43C12.24 16.75 12.23 17.28 12.56 17.61L14.54 19.54C14.87 19.86 15.41 19.85 15.72 19.5L25.32 8.66996Z" fill="#321B41"/>
<path d="M28.3999 5.12003L26.6699 3.43003C25.9699 2.75003 24.8199 2.87003 24.2799 3.69003L22.9099 5.78003C22.7199 6.06003 22.7599 6.44003 23.0099 6.68003L25.2399 8.86003C25.4799 9.10003 25.8599 9.13003 26.1399 8.94003L28.1999 7.52003C28.9999 6.96003 29.0999 5.80003 28.3999 5.12003Z" fill="#8C5543"/>
<path d="M9.41173 20.243L11.726 22.5457C12.0385 22.8582 12.05 23.3905 11.726 23.7145C11.402 24.0385 10.8813 24.0385 10.5573 23.7145L8.243 21.4117C7.919 21.0877 7.919 20.567 8.243 20.243C8.567 19.919 9.08772 19.919 9.41173 20.243Z" fill="#CDC4D6"/>
<path d="M7.04075 23.1242L8.88223 24.9657C9.05059 25.1341 9.04007 25.4182 8.84014 25.576L5.80958 27.9226C5.64122 28.0489 5.42024 28.0384 5.27292 27.8911L4.11542 26.7335C3.97862 26.5862 3.95758 26.3547 4.08385 26.1969L6.43043 23.1663C6.58827 22.9664 6.87238 22.9559 7.04075 23.1242Z" fill="#CDC4D6"/>
</svg>

<svg xmlns="http://www.w3.org/2000/svg" width="32" height="32" fill="none"><path fill="#FCD53F" d="M11.02 13.1a.99.99 0 1 1-1.98 0 .99.99 0 0 1 1.98 0ZM6.45 15.41a.99.99 0 1 1-1.98 0 .99.99 0 0 1 1.98 0ZM16.63 27.58a.99.99 0 1 0 0-1.98.99.99 0 0 0 0 1.98ZM19.88 21.96a.99.99 0 1 1-1.98 0 .99.99 0 0 1 1.98 0ZM2.99 21.12a.99.99 0 1 0 0-1.98.99.99 0 0 0 0 1.98ZM12.85 29a.99.99 0 1 1-1.98 0 .99.99 0 0 1 1.98 0Z"/><path fill="#D3D3D3" d="M25 3.144a.8.8 0 1 1-1.6 0 .8.8 0 0 1 1.6 0ZM23.74 4.874a.8.8 0 1 1-1.6 0 .8.8 0 0 1 1.6 0ZM28.727 8.459a.8.8 0 1 0 0-1.6.8.8 0 0 0 0 1.6ZM27.797 8.919a.8.8 0 1 1-1.6 0 .8.8 0 0 1 1.6 0Z"/><path fill="#F3EEF8" d="M11 28a7 7 0 1 0 0-14 7 7 0 0 0 0 14Z"/><path fill="#8C5543" d="M15.46 16.54a6.278 6.278 0 1 1-8.88 8.88 6.278 6.278 0 0 1 4.44-10.72c1.74 0 3.31.7 4.44 1.84Zm1.18-1.17a7.873 7.873 0 0 0-5.61-2.32c-2.12 0-4.11.83-5.61 2.32a7.873 7.873 0 0 0-2.32 5.61c0 2.12.83 4.11 2.32 5.61 1.5 1.5 3.49 2.32 5.61 2.32 4.38 0 7.94-3.56 7.94-7.94a7.96 7.96 0 0 0-2.33-5.6Z"/><path fill="#321B41" d="M25.32 8.67 23.2 6.58l-10.62 9.85c-.34.32-.35.85-.02 1.18l1.98 1.93c.33.32.87.31 1.18-.04l9.6-10.83Z"/><path fill="#8C5543" d="m28.4 5.12-1.73-1.69a1.56 1.56 0 0 0-2.39.26l-1.37 2.09c-.19.28-.15.66.1.9l2.23 2.18c.24.24.62.27.9.08l2.06-1.42c.8-.56.9-1.72.2-2.4Z"/><path fill="#CDC4D6" d="m9.412 20.243 2.314 2.303a.835.835 0 0 1 0 1.169.824.824 0 0 1-1.169 0l-2.314-2.303a.824.824 0 0 1 0-1.169.824.824 0 0 1 1.169 0ZM7.04 23.124l1.842 1.842a.408.408 0 0 1-.042.61l-3.03 2.347a.403.403 0 0 1-.537-.032l-1.158-1.157a.415.415 0 0 1-.031-.537l2.346-3.03c.158-.2.442-.211.61-.043Z"/></svg>
